X:1
T:No More
T:No More
T:May Jennette Whittle Moody
T:Daniel Webster Whittle, 1894
T:Public Domain Courtesy of the Cyber Hymnal™
T:Public Domain Courtesy of the Cyber Hymnal™
C:May Jennette Whittle Moody
Z:Public Domain
Z:Courtesy of the Cyber Hymnal™
%%score ( 1 2 ) ( 3 4 )
L:1/8
Q:1/4=96
M:3/4
K:G
V:1 treble 
V:2 treble 
V:3 bass 
V:4 bass 
V:1
 [DG][DA]>[GB] | [Gc]3 [Gc] [GB][G^A] | [GB]2 [DG]2 [DB]2 | [Fd]3 [FA] [EG][FA] | %4
w: 1.~“No more the|curse,” O Christ, we|praise Thee, Thy|blood the tri- umph|
w: 2.~“No more of|pain” and care- worn|fac- es, No|forms bowed with dis-|
w: 3.~“No more of|night,” the day is|dawn- ing; The|Lord is draw- ing|
w: 4.~“No more the|curse,” no more the|cry- ing, All|thirst and hun- ger|
 [GB]3 [DG] [DA]>[GB] | [Gc]3 [Gc] [GB][G^A] | [GB]2 [EG]2 E2 | [DF][DF] [^CG]2 [CE]2 | D3 z || %9
w: wins; The cross to|which Thy love did|raise Thee, Hath|put a- way our|sins.|
w: ease; O’er all the|earth the Lord re-|plac- es, His|par- a- dise of|peace.|
w: near; With Him shall|come the longed for|morn- ing, When|night shall dis- ap-|pear.|
w: o’er; No more the|night, no more the|dy- ing, No|tears or sor- row|more.|
"^Refrain" DD | [DB]2 [DG]2 [CE]2 | [CD]4 [CD][CD] | (DE) (FG) (AG) | [DG]2 [DF]2 DD | %14
w: |||||
w: |||||
w: |||||
w: |||||
 [Dd]2 [DB]2 [DA]2 | [DG]4 [=FG][FG] | (GA) (Bc) (dc) | [DB]2 [DA]2 D2 | [DB]3 [DB] [Ec][DB] | %19
w: |||||
w: |||||
w: |||||
w: |||||
 [CA]2 E2 ([=EF][_EG]) | [DG]2 A3 [DG] | [DG]4 z2 |] %22
w: |||
w: |||
w: |||
w: |||
V:2
 x3 | x6 | x6 | x6 | x6 | x6 | x4 E2 | x6 | D3 x || DD | x6 | x6 | B,2 B,2 ^C2 | x4 DD | x6 | x6 | %16
 E2 E2 E2 | x4 D2 | x6 | x2 _E2 x2 | x2 (G2 F) x | x6 |] %22
V:3
 [G,B,][G,C]>[G,D] | [G,E]3 [G,E] [G,D][G,^C] | [G,D]2 [G,B,]2 G,2 | [D,A,]3 [D,D] [D,D][D,D] | %4
w: ||* * “There||
 [G,D]3 [G,B,] [G,C]>[G,D] | [G,E]3 [G,E] [G,D][G,^C] | [G,D]2 [G,B,]2 [G,,B,]2 | %7
w: |||
 [A,,A,][A,,A,] [A,,E,]2 [A,,G,]2 | [D,F,]3 z || [D,F,][D,F,] | [G,,G,]2 [B,,G,]2 [C,G,]2 | %11
w: ||shall be|no more curse,|
 [D,F,]4 [D,A,][D,A,] | G,2 [E,G,]2 [A,,G,]2 | [D,B,]2 [D,A,]2 [C,F,][C,F,] | %14
w: Nei- ther sor-|row nor cry-|ing; There shall be|
 [B,,G,]2 [G,,G,]2 [A,,F,]2 | [B,,G,]4 [B,,G,][B,,G,] | [C,G,]2 [C,G,]2 [A,,G,]2 | %17
w: no more pain,|Nei- ther dark-|ness nor dy-|
 [D,F,]2 [D,F,]2 [D,F,]2 | [G,,G,]3 [G,,G,] [E,^G,][E,G,] | A,4 [^C,^A,]2 | %20
w: ing; And God|shall wipe a- way|All tears|
 [D,B,]2 ([D,C]3 [G,,B,]) | [G,,B,]4 z2 |] %22
w: from their *|eyes.”|
V:4
 x3 | x6 | x4 G,2 | x6 | x6 | x6 | x6 | x6 | x4 || x2 | x6 | x6 | G,2 x4 | x6 | x6 | x6 | x6 | x6 | %18
 x6 | ^A,,2 ^C,2 x2 | x6 | x6 |] %22

